X: 1
T: F\"orv\"antan
T: Expectation
R: shottish
Z: 2017 John Chambers <jc:trillian.mit.edu>
M: 4/4
L: 1/8
K: Am
Ac |\
e2ae f2af | e2c2 A2AB | c2dc B2^d2 | e4- e2Ac |\
e2ae f2af | e2c2 A2AB | c2dc B2G2 | A4- A2 :|
|: AB |\
c4- c2Bc | d4- d2cd | e4 fed2 | e4- e2AB |\
c4- c2BA | B4- B2AG | A4- A4 | A4- A2 :|
